svg/icon/pasl.svg

<svg height="32" viewBox="0 0 32 32" width="32" xmlns="http://www.w3.org/2000/svg" xmlns:xlink="http://www.w3.org/1999/xlink"><defs><linearGradient id="a" x1="50%" x2="50%" y1="0%" y2="100%"><stop offset="0" stop-color="#fff" stop-opacity=".5"/><stop offset="1" stop-opacity=".5"/></linearGradient><circle id="b" cx="16" cy="15" r="15"/><filter id="c" height="111.7%" width="111.7%" x="-5.8%" y="-4.2%"><feOffset dy=".5" in="SourceAlpha" result="shadowOffsetOuter1"/><feGaussianBlur in="shadowOffsetOuter1" result="shadowBlurOuter1" stdDeviation=".5"/><feComposite in="shadowBlurOuter1" in2="SourceAlpha" operator="out" result="shadowBlurOuter1"/><feColorMatrix in="shadowBlurOuter1" values="0 0 0 0 0   0 0 0 0 0   0 0 0 0 0  0 0 0 0.199473505 0"/></filter><path id="d" d="m15.0808004 19.1558894c.2609718-.1083153.5598609.016593.6675877.2789905.1077267.2623974-.016503.5629193-.2774747.6712345l-3.4061447 1.4137057-.4521759 2.4801799h-2.34342001l.25671309-1.4264275-1.38227509.5737073c-.26097177.1083152-.55986096-.0165931-.66758768-.2789905-.10772671-.2623974.01650295-.5629194.27747472-.6712346l1.98869625-.8253998.15093234-.8386563-2.68672875 1.1151152c-.26097177.1083152-.55986096-.0165931-.66758767-.2789905-.10772672-.2623974.01650294-.5629194.27747471-.6712346l3.29314989-1.3668077 2.3973835-13.32107322h6.7736801c4.1463345-.14277771 6.2195018 1.24216613 6.2195018 4.15483152 0 3.6953773-2.7019761 6.5534972-7.284702 6.5534972h-5.2751433l-.283606 1.5555758 1.4870386-.617189c.2609717-.1083152.5598609.0165931.6675876.2789905.1077268.2623974-.0165029.5629194-.2774747.6712346l-2.0965108.8701478-.1530614.83954zm-.5709991-11.04704919-1.1713781 6.42499719h5.2176796c3.2117688 0 4.430462-2.184499 4.430462-3.7693317 0-1.58483262-.7668107-2.65566549-3.3228465-2.65566549z"/><filter id="e" height="119.4%" width="118.4%" x="-9.2%" y="-6.9%"><feOffset dy=".5" in="SourceAlpha" result="shadowOffsetOuter1"/><feGaussianBlur in="shadowOffsetOuter1" result="shadowBlurOuter1" stdDeviation=".5"/><feColorMatrix in="shadowBlurOuter1" values="0 0 0 0 0   0 0 0 0 0   0 0 0 0 0  0 0 0 0.204257246 0"/></filter></defs><g fill="none" fill-rule="evenodd"><use fill="#000" filter="url(#c)" xlink:href="#b"/><use fill="#00acff" xlink:href="#b"/><use fill="url(#a)" xlink:href="#b"/><circle cx="16" cy="15" r="14.5" stroke="#000" stroke-opacity=".097"/><use fill="#000" filter="url(#e)" xlink:href="#d"/><use fill="#fff" xlink:href="#d"/></g></svg>

<svg xmlns="http://www.w3.org/2000/svg" xmlns:xlink="http://www.w3.org/1999/xlink" width="32" height="32" viewBox="0 0 32 32">
  <defs>
    <linearGradient id="pasl-c" x1="50%" x2="50%" y1="0%" y2="100%">
      <stop offset="0%" stop-color="#FFF" stop-opacity=".5"/>
      <stop offset="100%" stop-opacity=".5"/>
    </linearGradient>
    <circle id="pasl-b" cx="16" cy="15" r="15"/>
    <filter id="pasl-a" width="111.7%" height="111.7%" x="-5.8%" y="-4.2%" filterUnits="objectBoundingBox">
      <feOffset dy=".5" in="SourceAlpha" result="shadowOffsetOuter1"/>
      <feGaussianBlur in="shadowOffsetOuter1" result="shadowBlurOuter1" stdDeviation=".5"/>
      <feComposite in="shadowBlurOuter1" in2="SourceAlpha" operator="out" result="shadowBlurOuter1"/>
      <feColorMatrix in="shadowBlurOuter1" values="0 0 0 0 0   0 0 0 0 0   0 0 0 0 0  0 0 0 0.199473505 0"/>
    </filter>
    <path id="pasl-e" d="M15.0808004,19.1558894 C15.3417722,19.0475741 15.6406613,19.1724824 15.7483881,19.4348799 C15.8561148,19.6972773 15.7318851,19.9977992 15.4709134,20.1061144 L12.0647687,21.5198201 L11.6125928,24 L9.26917279,24 L9.52588588,22.5735725 L8.14361079,23.1472798 C7.88263902,23.255595 7.58374983,23.1306867 7.47602311,22.8682893 C7.3682964,22.6058919 7.49252606,22.3053699 7.75349783,22.1970547 L9.74219408,21.3716549 L9.89312642,20.5329986 L7.20639767,21.6481138 C6.9454259,21.756429 6.64653671,21.6315207 6.53881,21.3691233 C6.43108328,21.1067259 6.55531294,20.8062039 6.81628471,20.6978887 L10.1094346,19.331081 L12.5068181,6.01000778 L19.2804982,6.01000778 C23.4268327,5.86723007 25.5,7.25217391 25.5,10.1648393 C25.5,13.8602166 22.7980239,16.7183365 18.215298,16.7183365 L12.9401547,16.7183365 L12.6565487,18.2739123 L14.1435873,17.6567233 C14.404559,17.5484081 14.7034482,17.6733164 14.8111749,17.9357138 C14.9189017,18.1981112 14.794672,18.4986332 14.5337002,18.6069484 L12.4371894,19.4770962 L12.284128,20.3166362 L15.0808004,19.1558894 Z M14.5098013,8.10884021 L13.3384232,14.5338374 L18.5561028,14.5338374 C21.7678716,14.5338374 22.9865648,12.3493384 22.9865648,10.7645057 C22.9865648,9.17967308 22.2197541,8.10884021 19.6637183,8.10884021 L14.5098013,8.10884021 Z"/>
    <filter id="pasl-d" width="118.4%" height="119.4%" x="-9.2%" y="-6.9%" filterUnits="objectBoundingBox">
      <feOffset dy=".5" in="SourceAlpha" result="shadowOffsetOuter1"/>
      <feGaussianBlur in="shadowOffsetOuter1" result="shadowBlurOuter1" stdDeviation=".5"/>
      <feColorMatrix in="shadowBlurOuter1" values="0 0 0 0 0   0 0 0 0 0   0 0 0 0 0  0 0 0 0.204257246 0"/>
    </filter>
  </defs>
  <g fill="none" fill-rule="evenodd">
    <use fill="#000" filter="url(#pasl-a)" xlink:href="#pasl-b"/>
    <use fill="#00ACFF" xlink:href="#pasl-b"/>
    <use fill="url(#pasl-c)" style="mix-blend-mode:soft-light" xlink:href="#pasl-b"/>
    <circle cx="16" cy="15" r="14.5" stroke="#000" stroke-opacity=".097"/>
    <g>
      <use fill="#000" filter="url(#pasl-d)" xlink:href="#pasl-e"/>
      <use fill="#FFF" xlink:href="#pasl-e"/>
    </g>
  </g>
</svg>
